assets/icons/no-package/snap.svg

<?xml version="1.0" encoding="UTF-8" standalone="no"?>
<svg
   viewBox="0 0 24 24"
   height="24"
   id="svg7384"
   version="1.1"
   width="24"
   sodipodi:docname="snap.svg"
   inkscape:version="1.2 (1:1.2.1+202207142221+cd75a1ee6d)"
   xmlns:inkscape="http://www.inkscape.org/namespaces/inkscape"
   xmlns:sodipodi="http://sodipodi.sourceforge.net/DTD/sodipodi-0.dtd"
   xmlns="http://www.w3.org/2000/svg"
   xmlns:svg="http://www.w3.org/2000/svg"
   xmlns:rdf="http://www.w3.org/1999/02/22-rdf-syntax-ns#"
   xmlns:cc="http://creativecommons.org/ns#"
   xmlns:dc="http://purl.org/dc/elements/1.1/">
  <sodipodi:namedview
     id="namedview25"
     pagecolor="#ffffff"
     bordercolor="#666666"
     borderopacity="1.0"
     inkscape:pageshadow="2"
     inkscape:pageopacity="0.0"
     inkscape:pagecheckerboard="0"
     showgrid="false"
     inkscape:zoom="32"
     inkscape:cx="11"
     inkscape:cy="13.390625"
     inkscape:window-width="1920"
     inkscape:window-height="1016"
     inkscape:window-x="0"
     inkscape:window-y="0"
     inkscape:window-maximized="1"
     inkscape:current-layer="svg7384"
     inkscape:snap-page="true"
     inkscape:snap-global="true"
     inkscape:showpageshadow="2"
     inkscape:deskcolor="#d1d1d1">
    <inkscape:grid
       type="xygrid"
       id="grid829" />
    <inkscape:grid
       type="xygrid"
       id="grid831"
       dotted="true"
       spacingx="0.5"
       spacingy="0.5"
       empspacing="10" />
  </sodipodi:namedview>
  <metadata
     id="metadata20854">
    <rdf:RDF>
      <cc:Work
         rdf:about="">
        <dc:format>image/svg+xml</dc:format>
        <dc:type
           rdf:resource="http://purl.org/dc/dcmitype/StillImage" />
      </cc:Work>
    </rdf:RDF>
  </metadata>
  <defs
     id="defs7386">
    <linearGradient
       id="linearGradient5606"
       inkscape:swatch="solid">
      <stop
         id="stop5608"
         offset="0"
         style="stop-color:#000000;stop-opacity:1;" />
    </linearGradient>
    <linearGradient
       id="linearGradient4526"
       inkscape:swatch="solid">
      <stop
         id="stop4528"
         offset="0"
         style="stop-color:#ffffff;stop-opacity:1;" />
    </linearGradient>
    <linearGradient
       id="linearGradient3600-4"
       inkscape:swatch="gradient">
      <stop
         id="stop3602-7"
         offset="0"
         style="stop-color:#f4f4f4;stop-opacity:1" />
      <stop
         id="stop3604-6"
         offset="1"
         style="stop-color:#dbdbdb;stop-opacity:1" />
    </linearGradient>
  </defs>
  <path
     id="path866"
     style="color:#000000;fill:#808080;fill-opacity:1"
     d="M 3.3632812 2.65625 L 2.6367188 3.34375 L 4.0429688 4.8339844 C 4.0141396 5.0389332 4 5.2583865 4 5.5 L 4 18.5 C 4 19.041663 4.0635993 19.483918 4.2304688 19.859375 C 4.3973379 20.234832 4.6879024 20.527544 5.0273438 20.697266 C 5.7062264 21.036705 6.500004 21 7.5 21 L 15.5 21 C 16.499996 21 17.293774 21.036707 17.972656 20.697266 C 18.198692 20.584247 18.401904 20.415287 18.5625 20.205078 L 19.636719 21.34375 L 20.363281 20.65625 L 18.957031 19.167969 L 18.957031 19.166016 L 18 18.154297 L 12.677734 12.519531 L 12.134766 11.945312 L 12 11.800781 L 11.242188 10.998047 L 9.5683594 9.2265625 L 5.1464844 4.5429688 L 4.4414062 3.796875 L 3.3632812 2.65625 z M 6.7871094 3 C 6.2102786 3.0047633 5.7086526 3.0383212 5.2578125 3.2050781 L 6.0625 4.0566406 C 6.428875 4.0134723 6.9116085 4 7.5 4 L 15.5 4 C 16.499996 4 17.20623 4.0367086 17.527344 4.1972656 C 17.687901 4.2775443 17.772339 4.3598332 17.855469 4.546875 C 17.938599 4.7339168 18 5.0416686 18 5.5 L 18 16.697266 L 19 17.755859 L 19 5.5 C 19 4.9583354 18.9364 4.5160808 18.769531 4.140625 C 18.602661 3.7651692 18.312099 3.472455 17.972656 3.3027344 C 17.293774 2.9632929 16.499996 3 15.5 3 L 7.5 3 C 7.2500009 3 7.0127571 2.99814 6.7871094 3 z M 5 5.8457031 L 7.4824219 8.4746094 L 6.1660156 8 L 11.242188 13.458984 L 11.242188 12.455078 L 12 13.257812 L 12 13.285156 L 12.011719 13.271484 L 17.853516 19.457031 C 17.771014 19.640976 17.686639 19.723087 17.527344 19.802734 C 17.20623 19.963291 16.499996 20 15.5 20 L 7.5 20 C 6.500004 20 5.7937699 19.96329 5.4726562 19.802734 C 5.3120997 19.722454 5.2276614 19.640167 5.1445312 19.453125 C 5.0614015 19.266083 5 18.958333 5 18.5 L 5 5.8457031 z M 12.220703 9 L 16.873047 11 L 16 9 L 12.220703 9 z M 12 10.009766 L 12 10.34375 L 13.34375 11.765625 L 14.064453 10.951172 L 12 10.009766 z M 9.7558594 13.167969 L 7.5 17.890625 L 10.988281 14.402344 L 9.7558594 13.167969 z " />
</svg>

<svg height="24" width="24" xmlns="http://www.w3.org/2000/svg"><path style="color:#000;fill:gray;fill-opacity:1" d="m3.363 2.656-.726.688 1.406 1.49A4.768 4.768 0 0 0 4 5.5v13c0 .542.064.984.23 1.36.167.375.458.668.797.837.68.34 1.473.303 2.473.303h8c1 0 1.794.037 2.473-.303a1.71 1.71 0 0 0 .59-.492l1.074 1.139.726-.688-1.406-1.488v-.002L18 18.154l-5.322-5.634-.543-.575-.135-.144-.758-.803-1.674-1.771-4.422-4.684-.705-.746-1.078-1.14zM6.787 3c-.577.005-1.078.038-1.53.205l.806.852C6.428 4.013 6.912 4 7.5 4h8c1 0 1.706.037 2.027.197.16.08.245.163.328.35.084.187.145.495.145.953v11.197l1 1.059V5.5c0-.542-.064-.984-.23-1.36a1.72 1.72 0 0 0-.797-.837C17.293 2.963 16.5 3 15.5 3h-8c-.25 0-.487-.002-.713 0zM5 5.846l2.482 2.629L6.166 8l5.076 5.459v-1.004l.758.803v.027l.012-.014 5.842 6.186a.614.614 0 0 1-.327.346c-.32.16-1.027.197-2.027.197h-8c-1 0-1.706-.037-2.027-.197a.615.615 0 0 1-.328-.35C5.06 19.266 5 18.958 5 18.5V5.846zM12.22 9l4.653 2L16 9h-3.78zM12 10.01v.334l1.344 1.422.72-.815L12 10.01zm-2.244 3.158L7.5 17.891l3.488-3.489-1.232-1.234z"/></svg>
